X: 131
T: the Dancer's Delight
B: 204 Favourite Country Dances
N: Published by Straight & Skillern, London ca.1775
F: http://imslp.org/wiki/204_Favourite_Country_Dances_(Various) p.66 #131
Z: 2014 John Chambers <jc:trillian.mit.edu>
M: 6/8
L: 1/8
K: A
% - - - - - - - - - - - - - - - - - - - - - - - - -
|:\
ABA ABc | ded def | eae Bcd | cAA A3 |\
ABA cAc | def e2a | gfe fB^d | e3 E3 :|
|:\
edc bBc | dcB e2c | fdf e(d/c/B/A/) | GAB E2E |\
FAd cea | edc f2g | acd efd | cAA A3 :|
% - - - - - - - - - - - - - - - - - - - - - - - - -
%%begintext align
%% Cast off 1 Cu. cross over the next .| cast up 1 Cu. and
%% cross over to the top :| cross over 1 Cu. lead through
%% the Bottom and cast up .|: through the top and cast
%% off Right and Left at top :|:
%%endtext

%%sep 1 1 500
%%sep 1 1 500
